dist/img/button-bg-2.svg

<svg width="258" height="66" viewBox="0 0 258 66" fill="none" xmlns="http://www.w3.org/2000/svg">
<path d="M257.035 41.9637C256.757 45.9385 253.114 49.6429 246.363 52.8777C239.654 56.0931 230.05 58.7563 218.231 60.7368C194.601 64.6963 162.229 65.9087 126.721 63.4257C91.2124 60.9427 59.3239 55.2368 36.4751 48.0271C25.0468 44.4211 15.9074 40.4472 9.71026 36.3293C3.47547 32.1864 0.383335 28.0111 0.661282 24.0363C0.93923 20.0615 4.58237 16.3572 11.3331 13.1223C18.043 9.90694 27.6465 7.24372 39.4654 5.26326C63.0952 1.30367 95.4676 0.0913238 130.976 2.5743C166.484 5.05728 198.373 10.7632 221.221 17.9729C232.65 21.5789 241.789 25.5528 247.986 29.6707C254.221 33.8136 257.313 37.9889 257.035 41.9637Z" stroke="white"/>
</svg>

<svg width="258" height="66" fill="none" xmlns="http://www.w3.org/2000/svg"><path d="M257.035 41.964c-.278 3.974-3.921 7.679-10.672 10.914-6.709 3.215-16.313 5.878-28.132 7.859-23.63 3.96-56.002 5.172-91.51 2.689-35.509-2.483-67.397-8.19-90.246-15.399-11.428-3.606-20.568-7.58-26.765-11.698C3.475 32.186.383 28.011.661 24.036c.278-3.975 3.921-7.679 10.672-10.914 6.71-3.215 16.314-5.878 28.132-7.859 23.63-3.96 56.003-5.172 91.511-2.689 35.508 2.483 67.397 8.19 90.245 15.399 11.429 3.606 20.568 7.58 26.765 11.698 6.235 4.143 9.327 8.318 9.049 12.293Z" stroke="#fff"/></svg>
